BOEHME
CUT[ICH UND MEIN FLAESCHCHEN]
REG[Europa, Mitteleuropa, Deutschland]
TRD[]
FKT[]
SIG[B0344]
KEY[B0344   08  F 6/8 3/4]
MEL[333333  3235_4
    222222  2123_0
    333333  3235_4
    222222  2123_0
    3345_3  4_235+1
    3345_3  4_23_0
    2_2_.5  54#4#__
    +1__4#4#  655_.4
    3345_3  4_235+1
    334553  4321_0 //]
BEM[]
MEL_SEM[0 0 0 0 0 0 -2 2 3 -2 -3 0 0 0 0 0 0 -2 2 2 0 0 0 0 0 0 0 -2 2 3 -2 -3 0 0 0 0 0 0 -2 2 2 0 0 1 2 -3 1 -3 2 3 5 -8 0 1 2 -3 1 -3 2 -2 0 5 0 -1 0 6 -6 0 3 -2 0 -2 -1 0 1 2 -3 1 -3 2 3 5 -8 0 1 2 0 -3 1 -1 -2 -2]
MEL_RAW[333333  32354
    222222  21230
    333333  32354
    222222  21230
    33453  4235+1
    33453  4230
    225  54#4#
    +14#4#  6554
    33453  4235+1
    334553  43210]
NO_REP[32354
    21230
    32354
    21230
    34534235+1
    34534230
    254#
    +14#654
    34534235+1
    345343210]
RTM[xxxxxx  xxxx_x
    xxxxxx  xxxx_x
    xxxxxx  xxxx_x
    xxxxxx  xxxx_x
    xxxx_x  x_xxxx
    xxxx_x  x_xx_x
    x_x_.x  xxx__
    x__xx  xxx_.x
    xxxx_x  x_xxxx
    xxxxxx  xxxx_x]
SCL_DEG[12344#56+1]
SCL_SEM[2 2 1 1 1 2 3]

